X:143
T:score225
L:1/8
Q:1/4=96
M:3/4
I:linebreak $
K:F
 C>C | F3 CFG | G2 A2 c2 | B2 A2 G2 | c4 A2 |$ F2 E2 F2 | F2 G3 A | B3 AGF | F2 E2 C>C |$ F3 CFG | %10
 G2 A2 c2 | B2 A2 G2 | c4 A2 | F2 E2 F2 |$ F2 G3 A | B3 GF=E | F4 z2 |] %17
